Origami/64x64/apps/vocal.svg

<svg width="64" height="64" version="1" xmlns="http://www.w3.org/2000/svg">
 <defs>
  <radialGradient id="radialGradient4807" cx="15.5" cy="11.491" r="6.5" gradientTransform="matrix(2,0,0,2.3077693,0,-3.5184261)" gradientUnits="userSpaceOnUse">
   <stop offset="0"/>
   <stop stop-opacity="0" offset="1"/>
  </radialGradient>
 </defs>
 <path d="m12 26v3.332c0 8.6712 7.8662 15.7546 18 16.586v8.082h-14v4h32v-4h-14v-8.082c10.1338-0.83132 18-7.9148 18-16.586v-3.332h-4v2.668c0 7.386-7.136 13.332-16 13.332s-16-5.946-16-13.332v-2.668h-4z" style="fill:#d846d8"/>
 <rect transform="matrix(0,-1,-1,0,0,0)" x="-38" y="-46" width="32" height="28" rx="13.334" ry="14" style="fill:#909090"/>
 <path d="m27 7.999996a1 1.0012014 0 0 0 -1 1.0012014 1 1.0012014 0 0 0 1 1.0012016 1 1.0012014 0 0 0 1 -1.0012016 1 1.0012014 0 0 0 -1 -1.0012014zm4 0a1 1.0012014 0 0 0 -1 1.0012014 1 1.0012014 0 0 0 1 1.0012016 1 1.0012014 0 0 0 1 -1.0012016 1 1.0012014 0 0 0 -1 -1.0012014zm4 0a1 1.0012014 0 0 0 -1 1.0012014 1 1.0012014 0 0 0 1 1.0012016 1 1.0012014 0 0 0 1 -1.0012016 1 1.0012014 0 0 0 -1 -1.0012014zm4 0a1 1.0012014 0 0 0 -1 1.0012014 1 1.0012014 0 0 0 1 1.0012016 1 1.0012014 0 0 0 1 -1.0012016 1 1.0012014 0 0 0 -1 -1.0012014zm-15.14 0.484982c-0.55 0.3748498-1.072 0.7865438-1.56 1.2318782a1 1.0012014 0 0 0 0.7 0.2855428 1 1.0012014 0 0 0 1 -1.0012016 1 1.0012014 0 0 0 -0.14 -0.5162194zm-0.86 3.519824a1 1.0012014 0 0 0 -1 1.001201 1 1.0012014 0 0 0 1 1.001202 1 1.0012014 0 0 0 1 -1.001202 1 1.0012014 0 0 0 -1 -1.001201zm4 0a1 1.0012014 0 0 0 -1 1.001201 1 1.0012014 0 0 0 1 1.001202 1 1.0012014 0 0 0 1 -1.001202 1 1.0012014 0 0 0 -1 -1.001201zm4 0a1 1.0012014 0 0 0 -1 1.001201 1 1.0012014 0 0 0 1 1.001202 1 1.0012014 0 0 0 1 -1.001202 1 1.0012014 0 0 0 -1 -1.001201zm4 0a1 1.0012014 0 0 0 -1 1.001201 1 1.0012014 0 0 0 1 1.001202 1 1.0012014 0 0 0 1 -1.001202 1 1.0012014 0 0 0 -1 -1.001201zm4 0a1 1.0012014 0 0 0 -1 1.001201 1 1.0012014 0 0 0 1 1.001202 1 1.0012014 0 0 0 1 -1.001202 1 1.0012014 0 0 0 -1 -1.001201zm4 0a1 1.0012014 0 0 0 -1 1.001201 1 1.0012014 0 0 0 1 1.001202 1 1.0012014 0 0 0 1 -1.001202 1 1.0012014 0 0 0 -1 -1.001201zm-23.082 0.602323c-0.2744 0.447336-0.527 0.905486-0.7462 1.384461a1 1.0012014 0 0 0 0.8282 -0.985583 1 1.0012014 0 0 0 -0.082 -0.398878zm-0.918 3.402483a1 1.0012014 0 0 0 -0.5976 0.199439c-0.1086 0.431918-0.1942 0.870645-0.2578 1.317981a1 1.0012014 0 0 0 0.8554 0.484982 1 1.0012014 0 0 0 1 -1.001201 1 1.0012014 0 0 0 -1 -1.001201zm4 0a1 1.0012014 0 0 0 -1 1.001201 1 1.0012014 0 0 0 1 1.001201 1 1.0012014 0 0 0 1 -1.001201 1 1.0012014 0 0 0 -1 -1.001201zm4 0a1 1.0012014 0 0 0 -1 1.001201 1 1.0012014 0 0 0 1 1.001201 1 1.0012014 0 0 0 1 -1.001201 1 1.0012014 0 0 0 -1 -1.001201zm4 0a1 1.0012014 0 0 0 -1 1.001201 1 1.0012014 0 0 0 1 1.001201 1 1.0012014 0 0 0 1 -1.001201 1 1.0012014 0 0 0 -1 -1.001201zm4 0a1 1.0012014 0 0 0 -1 1.001201 1 1.0012014 0 0 0 1 1.001201 1 1.0012014 0 0 0 1 -1.001201 1 1.0012014 0 0 0 -1 -1.001201zm4 0a1 1.0012014 0 0 0 -1 1.001201 1 1.0012014 0 0 0 1 1.001201 1 1.0012014 0 0 0 1 -1.001201 1 1.0012014 0 0 0 -1 -1.001201zm4 0a1 1.0012014 0 0 0 -1 1.001201 1 1.0012014 0 0 0 1 1.001201 1 1.0012014 0 0 0 1 -1.001201 1 1.0012014 0 0 0 -1 -1.001201zm-24 4.004805a1 1.0012014 0 0 0 -1 1.001202 1 1.0012014 0 0 0 1 1.001201 1 1.0012014 0 0 0 1 -1.001201 1 1.0012014 0 0 0 -1 -1.001202zm4 0a1 1.0012014 0 0 0 -1 1.001202 1 1.0012014 0 0 0 1 1.001201 1 1.0012014 0 0 0 1 -1.001201 1 1.0012014 0 0 0 -1 -1.001202zm4 0a1 1.0012014 0 0 0 -1 1.001202 1 1.0012014 0 0 0 1 1.001201 1 1.0012014 0 0 0 1 -1.001201 1 1.0012014 0 0 0 -1 -1.001202zm4 0a1 1.0012014 0 0 0 -1 1.001202 1 1.0012014 0 0 0 1 1.001201 1 1.0012014 0 0 0 1 -1.001201 1 1.0012014 0 0 0 -1 -1.001202zm4 0a1 1.0012014 0 0 0 -1 1.001202 1 1.0012014 0 0 0 1 1.001201 1 1.0012014 0 0 0 1 -1.001201 1 1.0012014 0 0 0 -1 -1.001202zm4 0a1 1.0012014 0 0 0 -1 1.001202 1 1.0012014 0 0 0 1 1.001201 1 1.0012014 0 0 0 1 -1.001201 1 1.0012014 0 0 0 -1 -1.001202zm4 0a1 1.0012014 0 0 0 -1 1.001202 1 1.0012014 0 0 0 1 1.001201 1 1.0012014 0 0 0 1 -1.001201 1 1.0012014 0 0 0 -1 -1.001202zm-24 4.004806a1 1.0012014 0 0 0 -0.9882 0.873048c0.0018 0.124149 0.014 0.246295 0.0194 0.370444a1 1.0012014 0 0 0 0.9688 0.758911 1 1.0012014 0 0 0 1 -1.001201 1 1.0012014 0 0 0 -1 -1.001202zm4 0a1 1.0012014 0 0 0 -1 1.001202 1 1.0012014 0 0 0 1 1.001201 1 1.0012014 0 0 0 1 -1.001201 1 1.0012014 0 0 0 -1 -1.001202zm4 0a1 1.0012014 0 0 0 -1 1.001202 1 1.0012014 0 0 0 1 1.001201 1 1.0012014 0 0 0 1 -1.001201 1 1.0012014 0 0 0 -1 -1.001202zm4 0a1 1.0012014 0 0 0 -1 1.001202 1 1.0012014 0 0 0 1 1.001201 1 1.0012014 0 0 0 1 -1.001201 1 1.0012014 0 0 0 -1 -1.001202zm4 0a1 1.0012014 0 0 0 -1 1.001202 1 1.0012014 0 0 0 1 1.001201 1 1.0012014 0 0 0 1 -1.001201 1 1.0012014 0 0 0 -1 -1.001202zm4 0a1 1.0012014 0 0 0 -1 1.001202 1 1.0012014 0 0 0 1 1.001201 1 1.0012014 0 0 0 1 -1.001201 1 1.0012014 0 0 0 -1 -1.001202zm4 0a1 1.0012014 0 0 0 -1 1.001202 1 1.0012014 0 0 0 1 1.001201 1 1.0012014 0 0 0 1 -1.001201 1 1.0012014 0 0 0 -1 -1.001202zm-24 4.004806a1 1.0012014 0 0 0 -0.5078 0.136163c0.1786 0.636764 0.3936 1.259512 0.664 1.854225a1 1.0012014 0 0 0 0.8438 -0.989187 1 1.0012014 0 0 0 -1 -1.001201zm4 0a1 1.0012014 0 0 0 -1 1.001201 1 1.0012014 0 0 0 1 1.001202 1 1.0012014 0 0 0 1 -1.001202 1 1.0012014 0 0 0 -1 -1.001201zm4 0a1 1.0012014 0 0 0 -1 1.001201 1 1.0012014 0 0 0 1 1.001202 1 1.0012014 0 0 0 1 -1.001202 1 1.0012014 0 0 0 -1 -1.001201zm4 0a1 1.0012014 0 0 0 -1 1.001201 1 1.0012014 0 0 0 1 1.001202 1 1.0012014 0 0 0 1 -1.001202 1 1.0012014 0 0 0 -1 -1.001201zm4 0a1 1.0012014 0 0 0 -1 1.001201 1 1.0012014 0 0 0 1 1.001202 1 1.0012014 0 0 0 1 -1.001202 1 1.0012014 0 0 0 -1 -1.001201zm4 0a1 1.0012014 0 0 0 -1 1.001201 1 1.0012014 0 0 0 1 1.001202 1 1.0012014 0 0 0 1 -1.001202 1 1.0012014 0 0 0 -1 -1.001201zm4 0a1 1.0012014 0 0 0 -1 1.001201 1 1.0012014 0 0 0 1 1.001202 1 1.0012014 0 0 0 1 -1.001202 1 1.0012014 0 0 0 -1 -1.001201zm-20 4.004806a1 1.0012014 0 0 0 -1 1.001201 1 1.0012014 0 0 0 1 1.001201 1 1.0012014 0 0 0 1 -1.001201 1 1.0012014 0 0 0 -1 -1.001201zm4 0a1 1.0012014 0 0 0 -1 1.001201 1 1.0012014 0 0 0 1 1.001201 1 1.0012014 0 0 0 1 -1.001201 1 1.0012014 0 0 0 -1 -1.001201zm4 0a1 1.0012014 0 0 0 -1 1.001201 1 1.0012014 0 0 0 1 1.001201 1 1.0012014 0 0 0 1 -1.001201 1 1.0012014 0 0 0 -1 -1.001201zm4 0a1 1.0012014 0 0 0 -1 1.001201 1 1.0012014 0 0 0 1 1.001201 1 1.0012014 0 0 0 1 -1.001201 1 1.0012014 0 0 0 -1 -1.001201zm4 0a1 1.0012014 0 0 0 -1 1.001201 1 1.0012014 0 0 0 1 1.001201 1 1.0012014 0 0 0 1 -1.001201 1 1.0012014 0 0 0 -1 -1.001201zm4 0a1 1.0012014 0 0 0 -1 1.001201 1 1.0012014 0 0 0 0.29 0.704846c0.464-0.480577 0.902-0.981178 1.288-1.521826a1 1.0012014 0 0 0 -0.578 -0.184221zm-16 4.004805a1 1.0012014 0 0 0 -0.96 0.726873c0.6 0.270324 1.22 0.510612 1.866 0.696836a1 1.0012014 0 0 0 0.094 -0.422507 1 1.0012014 0 0 0 -1 -1.001202zm4 0a1 1.0012014 0 0 0 -1 1.001202 1 1.0012014 0 0 0 0.636 0.935122c0.208 0.01802 0.42 0.02002 0.63 0.03004a1 1.0012014 0 0 0 0.734 -0.965162 1 1.0012014 0 0 0 -1 -1.001202zm4 0a1 1.0012014 0 0 0 -1 1.001202 1 1.0012014 0 0 0 0.39 0.792951c0.506-0.0821 1.004-0.188226 1.488-0.320384a1 1.0012014 0 0 0 0.122 -0.472567 1 1.0012014 0 0 0 -1 -1.001202zm4 0a1 1.0012014 0 0 0 -0.95 0.688827c0.428-0.196236 0.842-0.412495 1.242-0.646776a1 1.0012014 0 0 0 -0.292 -0.042051z" style="fill:url(#radialGradient4807);opacity:.7"/>
 <path d="m32 6c-7.756 0-14 5.945431-14 13.332031v1c0-7.3866 6.244-13.332031 14-13.332031s14 5.945431 14 13.332031v-1c0-7.3866-6.244-13.332031-14-13.332031zm-20 20v1h4v-1h-4zm36 0v1h4v-1h-4zm-32 2.667969v0.332031 0.667969c0 7.386 7.136 13.332031 16 13.332031s16-5.946031 16-13.332031v-0.667969-0.332031c0 7.386-7.136 13.332031-16 13.332031s-16-5.946031-16-13.332031zm0 25.332031v1h14v-1h-14zm18 0v1h14v-1h-14z" style="fill:#ffffff;opacity:.1"/>
 <path d="m18 24.65v1.000523c0 7.389866 6.244 13.339009 14 13.339009s14-5.949143 14-13.339009v-1.000523c0 7.389866-6.244 13.339009-14 13.339009s-14-5.949143-14-13.339009zm-6 4.666503v1.000524c0 8.674537 7.8662 15.762183 18 16.594618v-1.000523c-10.1338-0.832435-18-7.920081-18-16.594619zm40 0c0 8.674538-7.866 15.762184-18 16.594619v1.000523c10.134-0.832435 18-7.920081 18-16.594618v-1.000524zm-36 28.682974v1.000523h32v-1.000523h-32z" style="opacity:.2"/>
</svg>

<svg xmlns="http://www.w3.org/2000/svg" width="64" height="64" version="1">
 <defs>
  <radialGradient id="radialGradient4807" cx="15.5" cy="11.491" r="6.5" gradientTransform="matrix(2,0,0,2.3077693,0,-3.5184261)" gradientUnits="userSpaceOnUse">
   <stop offset="0"/>
   <stop offset="1" stop-opacity="0"/>
  </radialGradient>
 </defs>
 <path style="fill:#d846d8" d="m 12,26 0,3.332 c 0,8.6712 7.8662,15.7546 18,16.586 l 0,8.082 -14,0 0,4 32,0 0,-4 -14,0 0,-8.082 C 44.1338,45.08668 52,38.0032 52,29.332 L 52,26 l -4,0 0,2.668 C 48,36.054 40.864,42 32,42 23.136,42 16,36.054 16,28.668 L 16,26 12,26 Z"/>
 <rect style="fill:#909090" width="32" height="28" x="-38" y="-46" rx="13.334" ry="14" transform="matrix(0,-1,-1,0,0,0)"/>
 <path style="opacity:0.7;fill:url(#radialGradient4807)" d="M 27,7.999996 A 1,1.0012014 0 0 0 26,9.0011974 1,1.0012014 0 0 0 27,10.002399 1,1.0012014 0 0 0 28,9.0011974 1,1.0012014 0 0 0 27,7.999996 Z m 4,0 A 1,1.0012014 0 0 0 30,9.0011974 1,1.0012014 0 0 0 31,10.002399 1,1.0012014 0 0 0 32,9.0011974 1,1.0012014 0 0 0 31,7.999996 Z m 4,0 A 1,1.0012014 0 0 0 34,9.0011974 1,1.0012014 0 0 0 35,10.002399 1,1.0012014 0 0 0 36,9.0011974 1,1.0012014 0 0 0 35,7.999996 Z m 4,0 A 1,1.0012014 0 0 0 38,9.0011974 1,1.0012014 0 0 0 39,10.002399 1,1.0012014 0 0 0 40,9.0011974 1,1.0012014 0 0 0 39,7.999996 Z M 23.86,8.484978 C 23.31,8.8598278 22.788,9.2715218 22.3,9.7168562 A 1,1.0012014 0 0 0 23,10.002399 1,1.0012014 0 0 0 24,9.0011974 1,1.0012014 0 0 0 23.86,8.484978 Z M 23,12.004802 a 1,1.0012014 0 0 0 -1,1.001201 1,1.0012014 0 0 0 1,1.001202 1,1.0012014 0 0 0 1,-1.001202 1,1.0012014 0 0 0 -1,-1.001201 z m 4,0 a 1,1.0012014 0 0 0 -1,1.001201 1,1.0012014 0 0 0 1,1.001202 1,1.0012014 0 0 0 1,-1.001202 1,1.0012014 0 0 0 -1,-1.001201 z m 4,0 a 1,1.0012014 0 0 0 -1,1.001201 1,1.0012014 0 0 0 1,1.001202 1,1.0012014 0 0 0 1,-1.001202 1,1.0012014 0 0 0 -1,-1.001201 z m 4,0 a 1,1.0012014 0 0 0 -1,1.001201 1,1.0012014 0 0 0 1,1.001202 1,1.0012014 0 0 0 1,-1.001202 1,1.0012014 0 0 0 -1,-1.001201 z m 4,0 a 1,1.0012014 0 0 0 -1,1.001201 1,1.0012014 0 0 0 1,1.001202 1,1.0012014 0 0 0 1,-1.001202 1,1.0012014 0 0 0 -1,-1.001201 z m 4,0 a 1,1.0012014 0 0 0 -1,1.001201 1,1.0012014 0 0 0 1,1.001202 1,1.0012014 0 0 0 1,-1.001202 1,1.0012014 0 0 0 -1,-1.001201 z m -23.082,0.602323 c -0.2744,0.447336 -0.527,0.905486 -0.7462,1.384461 A 1,1.0012014 0 0 0 20,13.006003 1,1.0012014 0 0 0 19.918,12.607125 Z M 19,16.009608 a 1,1.0012014 0 0 0 -0.5976,0.199439 c -0.1086,0.431918 -0.1942,0.870645 -0.2578,1.317981 A 1,1.0012014 0 0 0 19,18.01201 1,1.0012014 0 0 0 20,17.010809 1,1.0012014 0 0 0 19,16.009608 Z m 4,0 a 1,1.0012014 0 0 0 -1,1.001201 1,1.0012014 0 0 0 1,1.001201 1,1.0012014 0 0 0 1,-1.001201 1,1.0012014 0 0 0 -1,-1.001201 z m 4,0 a 1,1.0012014 0 0 0 -1,1.001201 1,1.0012014 0 0 0 1,1.001201 1,1.0012014 0 0 0 1,-1.001201 1,1.0012014 0 0 0 -1,-1.001201 z m 4,0 a 1,1.0012014 0 0 0 -1,1.001201 1,1.0012014 0 0 0 1,1.001201 1,1.0012014 0 0 0 1,-1.001201 1,1.0012014 0 0 0 -1,-1.001201 z m 4,0 a 1,1.0012014 0 0 0 -1,1.001201 1,1.0012014 0 0 0 1,1.001201 1,1.0012014 0 0 0 1,-1.001201 1,1.0012014 0 0 0 -1,-1.001201 z m 4,0 a 1,1.0012014 0 0 0 -1,1.001201 1,1.0012014 0 0 0 1,1.001201 1,1.0012014 0 0 0 1,-1.001201 1,1.0012014 0 0 0 -1,-1.001201 z m 4,0 a 1,1.0012014 0 0 0 -1,1.001201 1,1.0012014 0 0 0 1,1.001201 1,1.0012014 0 0 0 1,-1.001201 1,1.0012014 0 0 0 -1,-1.001201 z m -24,4.004805 a 1,1.0012014 0 0 0 -1,1.001202 1,1.0012014 0 0 0 1,1.001201 1,1.0012014 0 0 0 1,-1.001201 1,1.0012014 0 0 0 -1,-1.001202 z m 4,0 a 1,1.0012014 0 0 0 -1,1.001202 1,1.0012014 0 0 0 1,1.001201 1,1.0012014 0 0 0 1,-1.001201 1,1.0012014 0 0 0 -1,-1.001202 z m 4,0 a 1,1.0012014 0 0 0 -1,1.001202 1,1.0012014 0 0 0 1,1.001201 1,1.0012014 0 0 0 1,-1.001201 1,1.0012014 0 0 0 -1,-1.001202 z m 4,0 a 1,1.0012014 0 0 0 -1,1.001202 1,1.0012014 0 0 0 1,1.001201 1,1.0012014 0 0 0 1,-1.001201 1,1.0012014 0 0 0 -1,-1.001202 z m 4,0 a 1,1.0012014 0 0 0 -1,1.001202 1,1.0012014 0 0 0 1,1.001201 1,1.0012014 0 0 0 1,-1.001201 1,1.0012014 0 0 0 -1,-1.001202 z m 4,0 a 1,1.0012014 0 0 0 -1,1.001202 1,1.0012014 0 0 0 1,1.001201 1,1.0012014 0 0 0 1,-1.001201 1,1.0012014 0 0 0 -1,-1.001202 z m 4,0 a 1,1.0012014 0 0 0 -1,1.001202 1,1.0012014 0 0 0 1,1.001201 1,1.0012014 0 0 0 1,-1.001201 1,1.0012014 0 0 0 -1,-1.001202 z m -24,4.004806 a 1,1.0012014 0 0 0 -0.9882,0.873048 c 0.0018,0.124149 0.014,0.246295 0.0194,0.370444 A 1,1.0012014 0 0 0 19,26.021622 1,1.0012014 0 0 0 20,25.020421 1,1.0012014 0 0 0 19,24.019219 Z m 4,0 a 1,1.0012014 0 0 0 -1,1.001202 1,1.0012014 0 0 0 1,1.001201 1,1.0012014 0 0 0 1,-1.001201 1,1.0012014 0 0 0 -1,-1.001202 z m 4,0 a 1,1.0012014 0 0 0 -1,1.001202 1,1.0012014 0 0 0 1,1.001201 1,1.0012014 0 0 0 1,-1.001201 1,1.0012014 0 0 0 -1,-1.001202 z m 4,0 a 1,1.0012014 0 0 0 -1,1.001202 1,1.0012014 0 0 0 1,1.001201 1,1.0012014 0 0 0 1,-1.001201 1,1.0012014 0 0 0 -1,-1.001202 z m 4,0 a 1,1.0012014 0 0 0 -1,1.001202 1,1.0012014 0 0 0 1,1.001201 1,1.0012014 0 0 0 1,-1.001201 1,1.0012014 0 0 0 -1,-1.001202 z m 4,0 a 1,1.0012014 0 0 0 -1,1.001202 1,1.0012014 0 0 0 1,1.001201 1,1.0012014 0 0 0 1,-1.001201 1,1.0012014 0 0 0 -1,-1.001202 z m 4,0 a 1,1.0012014 0 0 0 -1,1.001202 1,1.0012014 0 0 0 1,1.001201 1,1.0012014 0 0 0 1,-1.001201 1,1.0012014 0 0 0 -1,-1.001202 z m -24,4.004806 a 1,1.0012014 0 0 0 -0.5078,0.136163 c 0.1786,0.636764 0.3936,1.259512 0.664,1.854225 A 1,1.0012014 0 0 0 20,29.025226 1,1.0012014 0 0 0 19,28.024025 Z m 4,0 a 1,1.0012014 0 0 0 -1,1.001201 1,1.0012014 0 0 0 1,1.001202 1,1.0012014 0 0 0 1,-1.001202 1,1.0012014 0 0 0 -1,-1.001201 z m 4,0 a 1,1.0012014 0 0 0 -1,1.001201 1,1.0012014 0 0 0 1,1.001202 1,1.0012014 0 0 0 1,-1.001202 1,1.0012014 0 0 0 -1,-1.001201 z m 4,0 a 1,1.0012014 0 0 0 -1,1.001201 1,1.0012014 0 0 0 1,1.001202 1,1.0012014 0 0 0 1,-1.001202 1,1.0012014 0 0 0 -1,-1.001201 z m 4,0 a 1,1.0012014 0 0 0 -1,1.001201 1,1.0012014 0 0 0 1,1.001202 1,1.0012014 0 0 0 1,-1.001202 1,1.0012014 0 0 0 -1,-1.001201 z m 4,0 a 1,1.0012014 0 0 0 -1,1.001201 1,1.0012014 0 0 0 1,1.001202 1,1.0012014 0 0 0 1,-1.001202 1,1.0012014 0 0 0 -1,-1.001201 z m 4,0 a 1,1.0012014 0 0 0 -1,1.001201 1,1.0012014 0 0 0 1,1.001202 1,1.0012014 0 0 0 1,-1.001202 1,1.0012014 0 0 0 -1,-1.001201 z m -20,4.004806 a 1,1.0012014 0 0 0 -1,1.001201 1,1.0012014 0 0 0 1,1.001201 1,1.0012014 0 0 0 1,-1.001201 1,1.0012014 0 0 0 -1,-1.001201 z m 4,0 a 1,1.0012014 0 0 0 -1,1.001201 1,1.0012014 0 0 0 1,1.001201 1,1.0012014 0 0 0 1,-1.001201 1,1.0012014 0 0 0 -1,-1.001201 z m 4,0 a 1,1.0012014 0 0 0 -1,1.001201 1,1.0012014 0 0 0 1,1.001201 1,1.0012014 0 0 0 1,-1.001201 1,1.0012014 0 0 0 -1,-1.001201 z m 4,0 a 1,1.0012014 0 0 0 -1,1.001201 1,1.0012014 0 0 0 1,1.001201 1,1.0012014 0 0 0 1,-1.001201 1,1.0012014 0 0 0 -1,-1.001201 z m 4,0 a 1,1.0012014 0 0 0 -1,1.001201 1,1.0012014 0 0 0 1,1.001201 1,1.0012014 0 0 0 1,-1.001201 1,1.0012014 0 0 0 -1,-1.001201 z m 4,0 a 1,1.0012014 0 0 0 -1,1.001201 1,1.0012014 0 0 0 0.29,0.704846 c 0.464,-0.480577 0.902,-0.981178 1.288,-1.521826 A 1,1.0012014 0 0 0 43,32.028831 Z m -16,4.004805 a 1,1.0012014 0 0 0 -0.96,0.726873 c 0.6,0.270324 1.22,0.510612 1.866,0.696836 A 1,1.0012014 0 0 0 28,37.034838 1,1.0012014 0 0 0 27,36.033636 Z m 4,0 a 1,1.0012014 0 0 0 -1,1.001202 1,1.0012014 0 0 0 0.636,0.935122 c 0.208,0.01802 0.42,0.02002 0.63,0.03004 A 1,1.0012014 0 0 0 32,37.034838 1,1.0012014 0 0 0 31,36.033636 Z m 4,0 a 1,1.0012014 0 0 0 -1,1.001202 1,1.0012014 0 0 0 0.39,0.792951 c 0.506,-0.0821 1.004,-0.188226 1.488,-0.320384 A 1,1.0012014 0 0 0 36,37.034838 1,1.0012014 0 0 0 35,36.033636 Z m 4,0 a 1,1.0012014 0 0 0 -0.95,0.688827 c 0.428,-0.196236 0.842,-0.412495 1.242,-0.646776 A 1,1.0012014 0 0 0 39,36.033636 Z"/>
 <path style="opacity:0.1;fill:#ffffff" d="M 32 6 C 24.244 6 18 11.945431 18 19.332031 L 18 20.332031 C 18 12.945431 24.244 7 32 7 C 39.756 7 46 12.945431 46 20.332031 L 46 19.332031 C 46 11.945431 39.756 6 32 6 z M 12 26 L 12 27 L 16 27 L 16 26 L 12 26 z M 48 26 L 48 27 L 52 27 L 52 26 L 48 26 z M 16 28.667969 L 16 29 L 16 29.667969 C 16 37.053969 23.136 43 32 43 C 40.864 43 48 37.053969 48 29.667969 L 48 29 L 48 28.667969 C 48 36.053969 40.864 42 32 42 C 23.136 42 16 36.053969 16 28.667969 z M 16 54 L 16 55 L 30 55 L 30 54 L 16 54 z M 34 54 L 34 55 L 48 55 L 48 54 L 34 54 z"/>
 <path style="opacity:0.2" d="m 18,24.65 0,1.000523 c 0,7.389866 6.244,13.339009 14,13.339009 7.756,0 14,-5.949143 14,-13.339009 L 46,24.65 c 0,7.389866 -6.244,13.339009 -14,13.339009 -7.756,0 -14,-5.949143 -14,-13.339009 z m -6,4.666503 0,1.000524 c 0,8.674537 7.8662,15.762183 18,16.594618 l 0,-1.000523 C 19.8662,45.078687 12,37.991041 12,29.316503 Z m 40,0 c 0,8.674538 -7.866,15.762184 -18,16.594619 l 0,1.000523 C 44.134,46.07921 52,38.991564 52,30.317027 l 0,-1.000524 z M 16,57.999477 16,59 l 32,0 0,-1.000523 -32,0 z"/>
</svg>
